src/images/svg/symbols/crash-indices-300.svg

<svg width="32" height="32" viewBox="0 0 32 32" fill="none" xmlns="http://www.w3.org/2000/svg">
<path d="M29.5 23H29C28.7239 23 28.5 22.7761 28.5 22.5C28.5 22.2239 28.7239 22 29 22H29.5C29.7761 22 30 22.2239 30 22.5C30 22.7761 29.7761 23 29.5 23Z" fill="#E4E4E4"/>
<path d="M27 23H26C25.7239 23 25.5 22.7761 25.5 22.5C25.5 22.2239 25.7239 22 26 22H27C27.2761 22 27.5 22.2239 27.5 22.5C27.5 22.7761 27.2761 23 27 23ZM24 23H23C22.7239 23 22.5 22.7761 22.5 22.5C22.5 22.2239 22.7239 22 23 22H24C24.2761 22 24.5 22.2239 24.5 22.5C24.5 22.7761 24.2761 23 24 23ZM21 23H20C19.7239 23 19.5 22.7761 19.5 22.5C19.5 22.2239 19.7239 22 20 22H21C21.2761 22 21.5 22.2239 21.5 22.5C21.5 22.7761 21.2761 23 21 23ZM18 23H17C16.7239 23 16.5 22.7761 16.5 22.5C16.5 22.2239 16.7239 22 17 22H18C18.2761 22 18.5 22.2239 18.5 22.5C18.5 22.7761 18.2761 23 18 23ZM15 23H14C13.7239 23 13.5 22.7761 13.5 22.5C13.5 22.2239 13.7239 22 14 22H15C15.2761 22 15.5 22.2239 15.5 22.5C15.5 22.7761 15.2761 23 15 23ZM9 23H8C7.72386 23 7.5 22.7761 7.5 22.5C7.5 22.2239 7.72386 22 8 22H9C9.27614 22 9.5 22.2239 9.5 22.5C9.5 22.7761 9.27614 23 9 23ZM6 23H5C4.72386 23 4.5 22.7761 4.5 22.5C4.5 22.2239 4.72386 22 5 22H6C6.27614 22 6.5 22.2239 6.5 22.5C6.5 22.7761 6.27614 23 6 23Z" fill="#E4E4E4"/>
<path d="M29.5 12H29C28.7239 12 28.5 11.7761 28.5 11.5C28.5 11.2239 28.7239 11 29 11H29.5C29.7761 11 30 11.2239 30 11.5C30 11.7761 29.7761 12 29.5 12Z" fill="#E4E4E4"/>
<path d="M27 12H26C25.7239 12 25.5 11.7761 25.5 11.5C25.5 11.2239 25.7239 11 26 11H27C27.2761 11 27.5 11.2239 27.5 11.5C27.5 11.7761 27.2761 12 27 12ZM24 12H23C22.7239 12 22.5 11.7761 22.5 11.5C22.5 11.2239 22.7239 11 23 11H24C24.2761 11 24.5 11.2239 24.5 11.5C24.5 11.7761 24.2761 12 24 12ZM21 12H20C19.7239 12 19.5 11.7761 19.5 11.5C19.5 11.2239 19.7239 11 20 11H21C21.2761 11 21.5 11.2239 21.5 11.5C21.5 11.7761 21.2761 12 21 12ZM18 12H17C16.7239 12 16.5 11.7761 16.5 11.5C16.5 11.2239 16.7239 11 17 11H18C18.2761 11 18.5 11.2239 18.5 11.5C18.5 11.7761 18.2761 12 18 12ZM15 12H14C13.7239 12 13.5 11.7761 13.5 11.5C13.5 11.2239 13.7239 11 14 11H15C15.2761 11 15.5 11.2239 15.5 11.5C15.5 11.7761 15.2761 12 15 12ZM12 12H11C10.7239 12 10.5 11.7761 10.5 11.5C10.5 11.2239 10.7239 11 11 11H12C12.2761 11 12.5 11.2239 12.5 11.5C12.5 11.7761 12.2761 12 12 12ZM9 12H8C7.72386 12 7.5 11.7761 7.5 11.5C7.5 11.2239 7.72386 11 8 11H9C9.27614 11 9.5 11.2239 9.5 11.5C9.5 11.7761 9.27614 12 9 12ZM6 12H5C4.72386 12 4.5 11.7761 4.5 11.5C4.5 11.2239 4.72386 11 5 11H6C6.27614 11 6.5 11.2239 6.5 11.5C6.5 11.7761 6.27614 12 6 12Z" fill="#E4E4E4"/>
<path d="M3 12H2.5C2.22386 12 2 11.7761 2 11.5C2 11.2239 2.22386 11 2.5 11H3C3.27614 11 3.5 11.2239 3.5 11.5C3.5 11.7761 3.27614 12 3 12Z" fill="#E4E4E4"/>
<path d="M29.8503 6.15C29.7596 6.05332 29.6329 5.99848 29.5003 5.99848C29.3678 5.99848 29.2411 6.05332 29.1503 6.15L28.0003 7.29V2.5C28.0003 2.22386 27.7765 2 27.5003 2C27.2242 2 27.0003 2.22386 27.0003 2.5V7.29L25.8503 6.15C25.657 5.9567 25.3436 5.9567 25.1503 6.15C24.957 6.3433 24.957 6.6567 25.1503 6.85L27.1503 8.85C27.1926 8.90063 27.2479 8.93868 27.3103 8.96C27.4314 9.01349 27.5693 9.01349 27.6903 8.96C27.7527 8.93868 27.8081 8.90063 27.8503 8.85L29.8503 6.85C29.947 6.75927 30.0019 6.63259 30.0019 6.5C30.0019 6.36741 29.947 6.24073 29.8503 6.15Z" fill="#EF4852"/>
<path d="M28.5302 27.0002L24.4202 14.6802C24.9103 14.2982 25.1142 13.6537 24.9329 13.0594C24.7516 12.4651 24.2227 12.0441 23.6029 12.0007C22.9831 11.9573 22.4007 12.3006 22.1384 12.8638C21.8761 13.427 21.9881 14.0937 22.4202 14.5402L19.6802 20.0002H19.5002H19.3902L16.8102 14.2102C17.1621 13.5793 17.0144 12.7873 16.4587 12.3257C15.9031 11.8641 15.0974 11.8641 14.5417 12.3257C13.9861 12.7873 13.8383 13.5793 14.1902 14.2102L11.6102 20.0002H11.3902L8.81022 14.2202C9.1621 13.5893 9.01436 12.7973 8.45872 12.3357C7.90308 11.8741 7.09736 11.8741 6.54172 12.3357C5.98608 12.7973 5.83834 13.5893 6.19022 14.2202L3.61022 20.0002H3.50022C2.77794 19.9853 2.14769 20.4874 2.00075 21.1948C1.85382 21.9021 2.23194 22.6137 2.90037 22.8877C3.5688 23.1618 4.33762 22.9205 4.72951 22.3136C5.12141 21.7067 5.02503 20.9066 4.50022 20.4102L7.00022 14.9002C7.32219 15.0233 7.67825 15.0233 8.00022 14.9002L10.4502 20.4102C10.0035 20.8321 9.85932 21.4839 10.0864 22.0549C10.3134 22.6259 10.8657 23.0006 11.4802 23.0006C12.0947 23.0006 12.647 22.6259 12.8741 22.0549C13.1011 21.4839 12.9569 20.8321 12.5102 20.4102L15.0002 14.9002C15.3222 15.0233 15.6783 15.0233 16.0002 14.9002L18.4502 20.4102C18.0081 20.8276 17.8617 21.4707 18.0796 22.0384C18.2975 22.6061 18.8365 22.986 19.4444 23.0005C20.0523 23.0149 20.6088 22.6608 20.8533 22.1041C21.0979 21.5474 20.9821 20.8981 20.5602 20.4602L23.3202 15.0002H23.5002L27.6102 27.3202C27.0403 27.7692 26.8734 28.5617 27.2139 29.2024C27.5544 29.8431 28.3046 30.1482 28.9956 29.9271C29.6867 29.706 30.1204 29.022 30.0256 28.3026C29.9309 27.5833 29.3349 27.0349 28.6102 27.0002H28.5302ZM3.53022 22.0002C3.25408 22.0002 3.03022 21.7763 3.03022 21.5002C3.03022 21.224 3.25408 21.0002 3.53022 21.0002C3.80636 21.0002 4.03022 21.224 4.03022 21.5002C4.03047 21.6382 3.97369 21.7701 3.87333 21.8648C3.77297 21.9595 3.63794 22.0085 3.50022 22.0002H3.53022ZM7.53022 14.0002C7.25408 14.0002 7.03022 13.7763 7.03022 13.5002C7.03022 13.224 7.25408 13.0002 7.53022 13.0002C7.80636 13.0002 8.03022 13.224 8.03022 13.5002C8.03047 13.6382 7.97369 13.7701 7.87333 13.8648C7.77297 13.9595 7.63794 14.0085 7.50022 14.0002H7.53022ZM11.5302 22.0002C11.2541 22.0002 11.0302 21.7763 11.0302 21.5002C11.0302 21.224 11.2541 21.0002 11.5302 21.0002C11.8064 21.0002 12.0302 21.224 12.0302 21.5002C12.0305 21.6382 11.9737 21.7701 11.8733 21.8648C11.773 21.9595 11.6379 22.0085 11.5002 22.0002H11.5302ZM15.5302 14.0002C15.2541 14.0002 15.0302 13.7763 15.0302 13.5002C15.0302 13.224 15.2541 13.0002 15.5302 13.0002C15.8064 13.0002 16.0302 13.224 16.0302 13.5002C16.0305 13.6382 15.9737 13.7701 15.8733 13.8648C15.773 13.9595 15.6379 14.0085 15.5002 14.0002H15.5302ZM19.5302 22.0002C19.2541 22.0002 19.0302 21.7763 19.0302 21.5002C19.0302 21.224 19.2541 21.0002 19.5302 21.0002C19.8064 21.0002 20.0302 21.224 20.0302 21.5002C20.0305 21.6382 19.9737 21.7701 19.8733 21.8648C19.773 21.9595 19.6379 22.0085 19.5002 22.0002H19.5302ZM23.5302 14.0002C23.2541 14.0002 23.0302 13.7763 23.0302 13.5002C23.0302 13.224 23.2541 13.0002 23.5302 13.0002C23.8064 13.0002 24.0302 13.224 24.0302 13.5002C24.0305 13.6382 23.9737 13.7701 23.8733 13.8648C23.773 13.9595 23.6379 14.0085 23.5002 14.0002H23.5302ZM28.5302 29.0002C28.2541 29.0002 28.0302 28.7763 28.0302 28.5002C28.0302 28.224 28.2541 28.0002 28.5302 28.0002C28.8064 28.0002 29.0302 28.224 29.0302 28.5002C29.0305 28.6382 28.9737 28.7701 28.8733 28.8648C28.773 28.9595 28.6379 29.0085 28.5002 29.0002H28.5302Z" fill="#58595B"/>
<path d="M13 2H4C2.89543 2 2 2.89543 2 4V8C2 9.10457 2.89543 10 4 10H13C14.1046 10 15 9.10457 15 8V4C15 2.89543 14.1046 2 13 2Z" fill="#EF4852"/>
<path d="M4.71936 5.62798C4.97936 5.62798 5.17136 5.57398 5.29536 5.46598C5.41936 5.35398 5.48136 5.21198 5.48136 5.03998V4.99798C5.48136 4.80598 5.42136 4.65998 5.30136 4.55998C5.18136 4.45598 5.01936 4.40398 4.81536 4.40398C4.61536 4.40398 4.44536 4.44998 4.30536 4.54198C4.16536 4.62998 4.04736 4.75398 3.95136 4.91398L3.50136 4.52398C3.56536 4.43198 3.63736 4.34398 3.71736 4.25998C3.79736 4.17598 3.89136 4.10398 3.99936 4.04398C4.10736 3.97998 4.22936 3.92998 4.36536 3.89398C4.50136 3.85398 4.65736 3.83398 4.83336 3.83398C5.02936 3.83398 5.21136 3.85798 5.37936 3.90598C5.54736 3.95398 5.69136 4.02598 5.81136 4.12198C5.93136 4.21398 6.02536 4.32798 6.09336 4.46398C6.16136 4.59598 6.19536 4.74598 6.19536 4.91398C6.19536 5.04598 6.17336 5.16598 6.12936 5.27398C6.08936 5.38198 6.03136 5.47798 5.95536 5.56198C5.88336 5.64198 5.79736 5.70798 5.69736 5.75998C5.60136 5.81198 5.49936 5.84998 5.39136 5.87398V5.90398C5.51136 5.92798 5.62336 5.96798 5.72736 6.02398C5.83536 6.07598 5.92936 6.14598 6.00936 6.23398C6.08936 6.31798 6.15136 6.41998 6.19536 6.53998C6.24336 6.65598 6.26736 6.78998 6.26736 6.94198C6.26736 7.12598 6.23136 7.29398 6.15936 7.44598C6.08736 7.59398 5.98536 7.72198 5.85336 7.82998C5.72536 7.93798 5.56936 8.02198 5.38536 8.08198C5.20136 8.13798 4.99736 8.16598 4.77336 8.16598C4.57736 8.16598 4.40536 8.14398 4.25736 8.09998C4.10936 8.05998 3.97736 8.00598 3.86136 7.93798C3.74936 7.86598 3.64936 7.78598 3.56136 7.69798C3.47736 7.60598 3.40336 7.51198 3.33936 7.41598L3.83736 7.02598C3.88936 7.10998 3.94336 7.18799 3.99936 7.25998C4.05936 7.32798 4.12536 7.38798 4.19736 7.43998C4.27336 7.48798 4.35736 7.52598 4.44936 7.55398C4.54536 7.58198 4.65336 7.59598 4.77336 7.59598C5.02936 7.59598 5.22536 7.53598 5.36136 7.41598C5.49736 7.29198 5.56536 7.12198 5.56536 6.90598V6.86398C5.56536 6.64798 5.49336 6.48398 5.34936 6.37198C5.20536 6.25998 5.00136 6.20398 4.73736 6.20398H4.29336V5.62798H4.71936Z" fill="white"/>
<path d="M8.54501 8.16598C8.28501 8.16598 8.05901 8.11799 7.86701 8.02199C7.67501 7.92199 7.51701 7.77998 7.39301 7.59598C7.26901 7.41198 7.17701 7.18598 7.11701 6.91798C7.05701 6.64998 7.02701 6.34398 7.02701 5.99998C7.02701 5.65998 7.05701 5.35598 7.11701 5.08798C7.17701 4.81598 7.26901 4.58798 7.39301 4.40398C7.51701 4.21998 7.67501 4.07998 7.86701 3.98398C8.05901 3.88398 8.28501 3.83398 8.54501 3.83398C9.06501 3.83398 9.44701 4.02398 9.69101 4.40398C9.93901 4.78398 10.063 5.31598 10.063 5.99998C10.063 6.68398 9.93901 7.21598 9.69101 7.59598C9.44701 7.97598 9.06501 8.16598 8.54501 8.16598ZM8.54501 7.58998C8.68901 7.58998 8.81101 7.56198 8.91101 7.50598C9.01501 7.44598 9.09901 7.36198 9.16301 7.25398C9.22701 7.14598 9.27301 7.01798 9.30101 6.86998C9.32901 6.71798 9.34301 6.54998 9.34301 6.36598V5.63398C9.34301 5.44998 9.32901 5.28398 9.30101 5.13598C9.27301 4.98398 9.22701 4.85398 9.16301 4.74598C9.09901 4.63798 9.01501 4.55598 8.91101 4.49998C8.81101 4.43998 8.68901 4.40998 8.54501 4.40998C8.40101 4.40998 8.27701 4.43998 8.17301 4.49998C8.07301 4.55598 7.99101 4.63798 7.92701 4.74598C7.86301 4.85398 7.81701 4.98398 7.78901 5.13598C7.76101 5.28398 7.74701 5.44998 7.74701 5.63398V6.36598C7.74701 6.54998 7.76101 6.71798 7.78901 6.86998C7.81701 7.01798 7.86301 7.14598 7.92701 7.25398C7.99101 7.36198 8.07301 7.44598 8.17301 7.50598C8.27701 7.56198 8.40101 7.58998 8.54501 7.58998Z" fill="white"/>
<path d="M12.1427 8.16598C11.8827 8.16598 11.6567 8.11799 11.4647 8.02199C11.2727 7.92199 11.1147 7.77998 10.9907 7.59598C10.8667 7.41198 10.7747 7.18598 10.7147 6.91798C10.6547 6.64998 10.6247 6.34398 10.6247 5.99998C10.6247 5.65998 10.6547 5.35598 10.7147 5.08798C10.7747 4.81598 10.8667 4.58798 10.9907 4.40398C11.1147 4.21998 11.2727 4.07998 11.4647 3.98398C11.6567 3.88398 11.8827 3.83398 12.1427 3.83398C12.6627 3.83398 13.0447 4.02398 13.2887 4.40398C13.5367 4.78398 13.6607 5.31598 13.6607 5.99998C13.6607 6.68398 13.5367 7.21598 13.2887 7.59598C13.0447 7.97598 12.6627 8.16598 12.1427 8.16598ZM12.1427 7.58998C12.2867 7.58998 12.4087 7.56198 12.5087 7.50598C12.6127 7.44598 12.6967 7.36198 12.7607 7.25398C12.8247 7.14598 12.8707 7.01798 12.8987 6.86998C12.9267 6.71798 12.9407 6.54998 12.9407 6.36598V5.63398C12.9407 5.44998 12.9267 5.28398 12.8987 5.13598C12.8707 4.98398 12.8247 4.85398 12.7607 4.74598C12.6967 4.63798 12.6127 4.55598 12.5087 4.49998C12.4087 4.43998 12.2867 4.40998 12.1427 4.40998C11.9987 4.40998 11.8747 4.43998 11.7707 4.49998C11.6707 4.55598 11.5887 4.63798 11.5247 4.74598C11.4607 4.85398 11.4147 4.98398 11.3867 5.13598C11.3587 5.28398 11.3447 5.44998 11.3447 5.63398V6.36598C11.3447 6.54998 11.3587 6.71798 11.3867 6.86998C11.4147 7.01798 11.4607 7.14598 11.5247 7.25398C11.5887 7.36198 11.6707 7.44598 11.7707 7.50598C11.8747 7.56198 11.9987 7.58998 12.1427 7.58998Z" fill="white"/>
</svg>

<svg width="32" height="32" fill="none" xmlns="http://www.w3.org/2000/svg"><path d="M29.5 23H29a.5.5 0 0 1 0-1h.5a.5.5 0 0 1 0 1ZM27 23h-1a.5.5 0 0 1 0-1h1a.5.5 0 0 1 0 1Zm-3 0h-1a.5.5 0 0 1 0-1h1a.5.5 0 0 1 0 1Zm-3 0h-1a.5.5 0 0 1 0-1h1a.5.5 0 0 1 0 1Zm-3 0h-1a.5.5 0 0 1 0-1h1a.5.5 0 0 1 0 1Zm-3 0h-1a.5.5 0 0 1 0-1h1a.5.5 0 0 1 0 1Zm-6 0H8a.5.5 0 0 1 0-1h1a.5.5 0 0 1 0 1Zm-3 0H5a.5.5 0 0 1 0-1h1a.5.5 0 0 1 0 1ZM29.5 12H29a.5.5 0 0 1 0-1h.5a.5.5 0 0 1 0 1ZM27 12h-1a.5.5 0 0 1 0-1h1a.5.5 0 0 1 0 1Zm-3 0h-1a.5.5 0 0 1 0-1h1a.5.5 0 0 1 0 1Zm-3 0h-1a.5.5 0 0 1 0-1h1a.5.5 0 0 1 0 1Zm-3 0h-1a.5.5 0 0 1 0-1h1a.5.5 0 0 1 0 1Zm-3 0h-1a.5.5 0 0 1 0-1h1a.5.5 0 0 1 0 1Zm-3 0h-1a.5.5 0 0 1 0-1h1a.5.5 0 0 1 0 1Zm-3 0H8a.5.5 0 0 1 0-1h1a.5.5 0 0 1 0 1Zm-3 0H5a.5.5 0 0 1 0-1h1a.5.5 0 0 1 0 1ZM3 12h-.5a.5.5 0 0 1 0-1H3a.5.5 0 0 1 0 1Z" fill="#E4E4E4"/><path d="M29.85 6.15a.48.48 0 0 0-.7 0L28 7.29V2.5a.5.5 0 1 0-1 0v4.79l-1.15-1.14a.495.495 0 1 0-.7.7l2 2a.36.36 0 0 0 .16.11.47.47 0 0 0 .38 0 .36.36 0 0 0 .16-.11l2-2a.48.48 0 0 0 0-.7Z" fill="#EF4852"/><path d="m28.53 27-4.11-12.32a1.5 1.5 0 1 0-2-.14L19.68 20h-.29l-2.58-5.79a1.5 1.5 0 1 0-2.62 0L11.61 20h-.22l-2.58-5.78a1.5 1.5 0 1 0-2.62 0L3.61 20H3.5a1.5 1.5 0 1 0 1 .41L7 14.9a1.4 1.4 0 0 0 1 0l2.45 5.51a1.5 1.5 0 1 0 2.06 0L15 14.9a1.4 1.4 0 0 0 1 0l2.45 5.51a1.5 1.5 0 1 0 2.11.05L23.32 15h.18l4.11 12.32a1.5 1.5 0 1 0 1-.32h-.08Zm-25-5a.5.5 0 1 1 .343-.135A.5.5 0 0 1 3.5 22h.03Zm4-8a.5.5 0 1 1 .343-.135A.5.5 0 0 1 7.5 14h.03Zm4 8a.5.5 0 1 1 .343-.135.5.5 0 0 1-.373.135h.03Zm4-8a.5.5 0 1 1 .343-.135.5.5 0 0 1-.373.135h.03Zm4 8a.5.5 0 1 1 .343-.135.5.5 0 0 1-.373.135h.03Zm4-8a.5.5 0 1 1 .343-.135.5.5 0 0 1-.373.135h.03Zm5 15a.5.5 0 1 1 .343-.135.5.5 0 0 1-.373.135h.03Z" fill="#58595B"/><path d="M13 2H4a2 2 0 0 0-2 2v4a2 2 0 0 0 2 2h9a2 2 0 0 0 2-2V4a2 2 0 0 0-2-2Z" fill="#EF4852"/><path d="M4.72 5.628c.26 0 .451-.054.575-.162a.549.549 0 0 0 .186-.426v-.042c0-.192-.06-.338-.18-.438-.12-.104-.282-.156-.486-.156-.2 0-.37.046-.51.138-.14.088-.258.212-.354.372l-.45-.39c.064-.092.136-.18.216-.264a1.433 1.433 0 0 1 .648-.366c.136-.04.292-.06.468-.06.196 0 .378.024.546.072.168.048.312.12.432.216a.974.974 0 0 1 .384.792.946.946 0 0 1-.066.36.881.881 0 0 1-.432.486c-.096.052-.198.09-.306.114v.03c.12.024.232.064.336.12a.912.912 0 0 1 .468.516c.048.116.072.25.072.402 0 .184-.036.352-.108.504a1.132 1.132 0 0 1-.306.384 1.38 1.38 0 0 1-.468.252 2.096 2.096 0 0 1-.612.084 1.816 1.816 0 0 1-.912-.228 1.795 1.795 0 0 1-.3-.24 2.363 2.363 0 0 1-.222-.282l.498-.39c.052.084.106.162.162.234.06.068.126.128.198.18a1.032 1.032 0 0 0 .576.156c.256 0 .452-.06.588-.18.136-.124.204-.294.204-.51v-.042c0-.216-.072-.38-.216-.492-.144-.112-.348-.168-.612-.168h-.444v-.576h.426ZM8.545 8.166c-.26 0-.486-.048-.678-.144-.192-.1-.35-.242-.474-.426a1.975 1.975 0 0 1-.276-.678A4.224 4.224 0 0 1 7.027 6c0-.34.03-.644.09-.912.06-.272.152-.5.276-.684.124-.184.282-.324.474-.42.192-.1.418-.15.678-.15.52 0 .902.19 1.146.57.248.38.372.912.372 1.596s-.124 1.216-.372 1.596c-.244.38-.626.57-1.146.57Zm0-.576a.74.74 0 0 0 .366-.084.692.692 0 0 0 .252-.252c.064-.108.11-.236.138-.384a2.79 2.79 0 0 0 .042-.504v-.732c0-.184-.014-.35-.042-.498a1.18 1.18 0 0 0-.138-.39.7.7 0 0 0-.618-.336.732.732 0 0 0-.372.09.66.66 0 0 0-.246.246 1.18 1.18 0 0 0-.138.39 2.691 2.691 0 0 0-.042.498v.732c0 .184.014.352.042.504.028.148.074.276.138.384a.708.708 0 0 0 .246.252.774.774 0 0 0 .372.084ZM12.143 8.166c-.26 0-.486-.048-.678-.144-.192-.1-.35-.242-.474-.426a1.975 1.975 0 0 1-.276-.678 4.224 4.224 0 0 1-.09-.918c0-.34.03-.644.09-.912.06-.272.152-.5.276-.684.124-.184.282-.324.474-.42.192-.1.418-.15.678-.15.52 0 .902.19 1.146.57.248.38.372.912.372 1.596s-.124 1.216-.372 1.596c-.244.38-.626.57-1.146.57Zm0-.576a.74.74 0 0 0 .366-.084.692.692 0 0 0 .252-.252c.064-.108.11-.236.138-.384a2.79 2.79 0 0 0 .042-.504v-.732c0-.184-.014-.35-.042-.498a1.18 1.18 0 0 0-.138-.39.7.7 0 0 0-.618-.336.732.732 0 0 0-.372.09.66.66 0 0 0-.246.246 1.18 1.18 0 0 0-.138.39 2.691 2.691 0 0 0-.042.498v.732c0 .184.014.352.042.504.028.148.074.276.138.384a.708.708 0 0 0 .246.252.774.774 0 0 0 .372.084Z" fill="#fff"/></svg>
